img/logo.svg

<svg width="173" height="40" viewBox="0 0 173 40" fill="none" xmlns="http://www.w3.org/2000/svg">
<g clip-path="url(#clip0_976_696)">
<path d="M31.2595 30.1178H9.69705C9.34309 30.1185 8.99248 30.0479 8.66529 29.9102C8.3381 29.7725 8.04074 29.5703 7.79023 29.3152C7.53973 29.0602 7.34099 28.7573 7.20539 28.4238C7.06979 28.0903 7 27.7329 7 27.3719V12.2547C6.99999 11.7721 7.12448 11.298 7.36097 10.8799C7.59747 10.4619 7.93764 10.1147 8.34733 9.87314C8.75702 9.63161 9.2218 9.50427 9.69501 9.50391C10.1682 9.50354 10.6332 9.63016 11.0432 9.87106L20.4806 15.425L29.9039 9.87106C30.314 9.63016 30.7789 9.50354 31.2522 9.50391C31.7254 9.50427 32.1902 9.63161 32.5998 9.87314C33.0095 10.1147 33.3497 10.4619 33.5862 10.8799C33.8227 11.298 33.9472 11.7721 33.9472 12.2547V27.3719C33.9472 28.0993 33.6642 28.797 33.1602 29.3119C32.6563 29.8267 31.9727 30.1166 31.2595 30.1178Z" fill="#C882FF"/>
<path d="M56.271 15.1923C54.2953 15.1923 52.84 15.9582 51.9052 17.4901C51.5098 16.7584 50.9205 16.1548 50.2047 15.7484C49.4889 15.3421 48.6754 15.1494 47.8573 15.1923C47.0537 15.1481 46.2529 15.3215 45.5362 15.695C44.8196 16.0684 44.2125 16.6285 43.7766 17.3185V15.5737H40.6963V30.1187H43.7766V21.9714C43.7066 20.9407 44.0167 19.9206 44.646 19.111C44.9345 18.7852 45.2895 18.528 45.6861 18.3575C46.0826 18.187 46.5111 18.1073 46.9411 18.1242C47.312 18.1017 47.6832 18.1645 48.0271 18.3081C48.3709 18.4517 48.6787 18.6723 48.9277 18.9537C49.4288 19.6229 49.6761 20.4541 49.6241 21.2944V30.1187H52.7045V21.9714C52.7045 20.7128 52.9803 19.7546 53.5318 19.111C53.819 18.7883 54.1733 18.5352 54.5688 18.3703C54.9643 18.2053 55.391 18.1326 55.8176 18.1576C56.1949 18.1385 56.5718 18.2042 56.9215 18.35C57.2712 18.4958 57.5853 18.7182 57.8415 19.0014C58.3691 19.6529 58.6347 20.4843 58.5847 21.3278V30.1187H61.6884V21.099C61.7639 19.5253 61.23 17.9844 60.202 16.8084C59.697 16.2696 59.0852 15.8467 58.4074 15.568C57.7295 15.2893 57.0012 15.1613 56.271 15.1923Z" fill="#281464"/>
<path d="M75.8669 17.6375C74.7076 16.0071 73.0436 15.1919 70.8747 15.1919C69.9326 15.1806 68.9987 15.3717 68.1338 15.7528C67.2688 16.1339 66.4923 16.6965 65.8546 17.4039C65.17 18.1247 64.6331 18.9774 64.2752 19.9121C63.9173 20.8469 63.7455 21.845 63.7699 22.8482C63.7457 23.8513 63.9177 24.8494 64.2756 25.7841C64.6335 26.7188 65.1703 27.5715 65.8546 28.2924C66.4923 28.9999 67.2688 29.5624 68.1338 29.9435C68.9987 30.3246 69.9326 30.5158 70.8747 30.5045C73.0561 30.5045 74.7201 29.6797 75.8669 28.0302V30.1231H78.9472V15.5733H75.8669V17.6375ZM74.5861 26.1853C73.7168 27.0305 72.5619 27.502 71.3609 27.502C70.1599 27.502 69.0049 27.0305 68.1356 26.1853C67.7165 25.743 67.3874 25.2203 67.1676 24.6475C66.9478 24.0747 66.8415 23.4632 66.8549 22.8482C66.8323 22.2321 66.9344 21.6178 67.1547 21.0437C67.3751 20.4695 67.709 19.9478 68.1356 19.5111C68.9982 18.6526 70.1557 18.1721 71.3609 18.1721C72.5661 18.1721 73.7235 18.6526 74.5861 19.5111C75.0128 19.9478 75.3467 20.4695 75.567 21.0437C75.7874 21.6178 75.8894 22.2321 75.8669 22.8482C75.8837 23.4636 75.779 24.0762 75.5589 24.6495C75.3389 25.2228 75.0081 25.7451 74.5861 26.1853Z" fill="#281464"/>
<path d="M85.4913 18.0136V15.5727H82.4062V30.1178H85.4913V22.7857C85.4913 21.2919 85.9275 20.2256 86.8001 19.5868C87.6932 18.9294 88.7876 18.6199 89.8851 18.7144V15.3105C87.7349 15.3105 86.2703 16.2116 85.4913 18.0136Z" fill="#281464"/>
<path d="M104.141 15.5672H100.378L94.8438 21.8791V9.875H91.7588V30.117H94.8438V23.4666L100.691 30.117H104.37L97.8681 22.6991L104.141 15.5672Z" fill="#281464"/>
<path d="M108.857 15.5742H105.776V30.124H108.857V15.5742Z" fill="#281464"/>
<path d="M126.409 11.4453H123.324V15.5738H116.845V11.4453H113.765V15.5738H111.143V18.3436H113.765V25.5804C113.765 27.4873 114.279 28.792 115.307 29.4943C116.336 30.1967 118.028 30.4049 120.384 30.1189V27.2966C119.603 27.3348 118.953 27.3395 118.43 27.2966C117.997 27.3034 117.577 27.1492 117.247 26.8628C117.098 26.6851 116.986 26.4788 116.917 26.256C116.848 26.0333 116.824 25.7987 116.845 25.5661V18.3436H123.324V25.5804C123.324 27.4873 123.838 28.792 124.866 29.4943C125.895 30.1967 127.584 30.4049 129.933 30.1189V27.2966C129.157 27.3348 128.503 27.3395 127.979 27.2966C127.547 27.3034 127.126 27.1492 126.797 26.8628C126.649 26.6847 126.537 26.4782 126.469 26.2555C126.401 26.0328 126.377 25.7983 126.399 25.5661V18.3436H129.933V15.5738H126.399L126.409 11.4453Z" fill="#281464"/>
<path d="M135.824 15.5742H132.743V30.124H135.824V15.5742Z" fill="#281464"/>
<path d="M145.985 15.1928C144.98 15.1538 143.979 15.3306 143.046 15.7117C142.112 16.0928 141.268 16.6696 140.567 17.4048C139.875 18.1209 139.33 18.9721 138.967 19.9075C138.604 20.8429 138.43 21.8434 138.455 22.8491C138.424 23.8667 138.598 24.8799 138.966 25.8262C139.334 26.7725 139.889 27.6317 140.596 28.3506C141.342 29.0731 142.223 29.636 143.187 30.0061C144.15 30.3761 145.176 30.5459 146.205 30.5054C148.981 30.5054 151.064 29.447 152.454 27.3304L149.911 25.8191C149.499 26.4109 148.946 26.8862 148.304 27.2005C147.662 27.5149 146.953 27.6579 146.242 27.6164C145.17 27.6548 144.114 27.3388 143.232 26.7154C142.416 26.1051 141.861 25.1991 141.68 24.1839H153.034C153.104 23.7521 153.142 23.3154 153.146 22.8777C153.192 20.8635 152.465 18.9104 151.122 17.4334C150.475 16.7043 149.681 16.1266 148.794 15.7399C147.907 15.3531 146.949 15.1665 145.985 15.1928ZM141.591 21.867C141.641 21.3107 141.802 20.7706 142.062 20.279C142.322 19.7874 142.677 19.3546 143.106 19.0066C143.913 18.3507 144.925 18.0124 145.957 18.0532C146.93 18.0312 147.879 18.37 148.626 19.0066C149.039 19.3605 149.376 19.7969 149.617 20.2888C149.858 20.7808 149.998 21.3179 150.028 21.867H141.591Z" fill="#281464"/>
<path d="M165.584 24.0838C165.287 23.5281 164.847 23.065 164.312 22.7442C163.817 22.4337 163.293 22.175 162.747 21.9719C162.174 21.7815 161.592 21.6224 161.003 21.4951C160.307 21.3154 159.636 21.0463 159.007 20.6942C158.806 20.5932 158.637 20.4381 158.516 20.2456C158.396 20.0531 158.33 19.8307 158.325 19.6025C158.315 19.3751 158.364 19.149 158.468 18.9473C158.571 18.7455 158.725 18.5752 158.914 18.4536C159.36 18.1645 159.881 18.0214 160.409 18.0436C161.721 18.0436 162.616 18.5966 163.092 19.7026L165.687 18.22C165.205 17.2843 164.468 16.5111 163.565 15.9937C162.6 15.4496 161.512 15.1734 160.409 15.1928C159.061 15.1469 157.74 15.5799 156.67 16.418C156.189 16.7975 155.802 17.2877 155.542 17.8486C155.282 18.4096 155.156 19.0253 155.174 19.6454C155.14 20.3078 155.284 20.9672 155.59 21.5524C155.893 22.0987 156.34 22.5478 156.88 22.8491C157.372 23.1466 157.888 23.4003 158.423 23.6071C158.989 23.812 159.564 23.987 160.148 24.1315C161.958 24.5796 162.862 25.2009 162.859 25.9955C162.859 27.0761 162.05 27.618 160.433 27.6211C158.815 27.6243 157.761 26.9267 157.268 25.5283L154.613 27.092C155.059 28.1478 155.83 29.0266 156.81 29.5948C157.916 30.2223 159.167 30.5352 160.433 30.5006C161.848 30.55 163.24 30.1302 164.401 29.304C164.914 28.9349 165.328 28.4412 165.606 27.8677C165.885 27.2941 166.018 26.6588 165.995 26.0193C166.029 25.3483 165.887 24.6802 165.584 24.0838Z" fill="#281464"/>
<path d="M107.319 13.3901C108.372 13.3901 109.226 12.5193 109.226 11.4451C109.226 10.3708 108.372 9.5 107.319 9.5C106.266 9.5 105.412 10.3708 105.412 11.4451C105.412 12.5193 106.266 13.3901 107.319 13.3901Z" fill="#281464"/>
<path d="M134.28 13.3901C135.334 13.3901 136.187 12.5193 136.187 11.4451C136.187 10.3708 135.334 9.5 134.28 9.5C133.227 9.5 132.373 10.3708 132.373 11.4451C132.373 12.5193 133.227 13.3901 134.28 13.3901Z" fill="#281464"/>
</g>
<defs>
<clipPath id="clip0_976_696">
<rect width="159" height="21" fill="white" transform="translate(7 9.5)"/>
</clipPath>
</defs>
</svg>

<svg width="173" height="40" fill="none" xmlns="http://www.w3.org/2000/svg"><g clip-path="url(#a)"><path d="M31.26 30.118H9.697c-.354 0-.705-.07-1.032-.208a2.689 2.689 0 0 1-.875-.595 2.75 2.75 0 0 1-.585-.891A2.793 2.793 0 0 1 7 27.372V12.255c0-.483.124-.957.361-1.375a2.73 2.73 0 0 1 .986-1.007 2.657 2.657 0 0 1 2.696-.002l9.438 5.554 9.423-5.554a2.657 2.657 0 0 1 2.696.002c.41.242.75.589.986 1.007.237.418.361.892.361 1.375v15.117c0 .727-.283 1.425-.787 1.94a2.666 2.666 0 0 1-1.9.806Z" fill="#C882FF"/><path d="M56.271 15.192c-1.976 0-3.431.766-4.366 2.298a4.412 4.412 0 0 0-1.7-1.742 4.297 4.297 0 0 0-2.348-.556 4.487 4.487 0 0 0-2.32.503 4.596 4.596 0 0 0-1.76 1.623v-1.744h-3.08v14.545h3.08V21.97a4.2 4.2 0 0 1 .869-2.86 2.942 2.942 0 0 1 1.04-.753c.397-.171.825-.25 1.255-.234.371-.022.742.04 1.086.184.344.144.652.364.9.646.502.669.75 1.5.697 2.34v8.825h3.08V21.97c0-1.258.276-2.216.828-2.86a2.865 2.865 0 0 1 1.037-.74 2.815 2.815 0 0 1 1.249-.213 2.52 2.52 0 0 1 1.104.192c.35.146.663.368.92.651a3.38 3.38 0 0 1 .743 2.327v8.79h3.103V21.1a6.08 6.08 0 0 0-1.486-4.29 5.14 5.14 0 0 0-1.795-1.241 5.053 5.053 0 0 0-2.136-.376Zm19.596 2.445c-1.16-1.63-2.823-2.445-4.992-2.445a6.6 6.6 0 0 0-2.741.56 6.715 6.715 0 0 0-2.28 1.652 7.574 7.574 0 0 0-1.579 2.508 7.691 7.691 0 0 0-.505 2.936 7.694 7.694 0 0 0 .506 2.936 7.58 7.58 0 0 0 1.579 2.508 6.714 6.714 0 0 0 2.279 1.651 6.6 6.6 0 0 0 2.74.561c2.182 0 3.846-.824 4.993-2.474v2.093h3.08v-14.55h-3.08v2.064Zm-1.28 8.548a4.626 4.626 0 0 1-3.226 1.317 4.626 4.626 0 0 1-3.225-1.317 4.665 4.665 0 0 1-.968-1.537 4.736 4.736 0 0 1-.313-1.8c-.023-.616.08-1.23.3-1.804a4.5 4.5 0 0 1 .98-1.533 4.572 4.572 0 0 1 3.226-1.339c1.205 0 2.362.48 3.225 1.34.427.436.76.957.981 1.532.22.574.322 1.188.3 1.804a4.672 4.672 0 0 1-.308 1.802 4.6 4.6 0 0 1-.973 1.535Zm10.904-8.171v-2.441h-3.085v14.545h3.085v-7.332c0-1.494.436-2.56 1.31-3.2a4.543 4.543 0 0 1 3.084-.872v-3.403c-2.15 0-3.615.9-4.394 2.703Zm18.65-2.447h-3.763l-5.534 6.312V9.875h-3.085v20.242h3.085v-6.65l5.847 6.65h3.679l-6.502-7.418 6.273-7.132Zm4.716.007h-3.081v14.55h3.081v-14.55Zm17.552-4.129h-3.085v4.129h-6.479v-4.129h-3.08v4.129h-2.622v2.77h2.622v7.236c0 1.907.514 3.212 1.542 3.914 1.029.703 2.721.91 5.077.625v-2.822c-.781.038-1.431.043-1.954 0a1.761 1.761 0 0 1-1.183-.434 1.75 1.75 0 0 1-.33-.607 1.788 1.788 0 0 1-.072-.69v-7.222h6.479v7.236c0 1.907.514 3.212 1.542 3.914 1.029.703 2.718.91 5.067.625v-2.822c-.776.038-1.43.043-1.954 0a1.759 1.759 0 0 1-1.182-.434 1.751 1.751 0 0 1-.398-1.297v-7.222h3.534v-2.77h-3.534l.01-4.129Zm9.415 4.129h-3.081v14.55h3.081v-14.55Zm10.161-.381a7.046 7.046 0 0 0-2.939.519 7.167 7.167 0 0 0-2.479 1.693 7.514 7.514 0 0 0-1.6 2.502 7.61 7.61 0 0 0-.512 2.942 7.58 7.58 0 0 0 .511 2.977 7.451 7.451 0 0 0 1.63 2.525 7.683 7.683 0 0 0 2.591 1.655 7.58 7.58 0 0 0 3.018.5c2.776 0 4.859-1.059 6.249-3.176l-2.543-1.51a4.221 4.221 0 0 1-1.607 1.38 4.137 4.137 0 0 1-2.062.416 4.909 4.909 0 0 1-3.01-.9 4.044 4.044 0 0 1-1.552-2.532h11.354c.07-.432.108-.869.112-1.306a7.831 7.831 0 0 0-2.024-5.445 6.686 6.686 0 0 0-2.328-1.693 6.576 6.576 0 0 0-2.809-.547Zm-4.394 6.674c.05-.556.211-1.096.471-1.588s.615-.924 1.044-1.272a4.252 4.252 0 0 1 2.851-.954 3.976 3.976 0 0 1 3.66 2.236c.241.492.381 1.029.411 1.578h-8.437Zm23.993 2.217a3.465 3.465 0 0 0-1.272-1.34 8.562 8.562 0 0 0-1.565-.772 16.78 16.78 0 0 0-1.744-.477 8.371 8.371 0 0 1-1.996-.8 1.236 1.236 0 0 1-.491-.45 1.269 1.269 0 0 1-.191-.643 1.305 1.305 0 0 1 .589-1.148c.446-.29.967-.433 1.495-.41 1.312 0 2.207.553 2.683 1.659l2.595-1.483a5.425 5.425 0 0 0-2.122-2.226 6.2 6.2 0 0 0-3.156-.801 5.743 5.743 0 0 0-3.739 1.225c-.481.38-.868.87-1.128 1.43a3.999 3.999 0 0 0-.368 1.797c-.034.663.11 1.322.416 1.907.303.547.75.996 1.29 1.297a9.834 9.834 0 0 0 1.543.758c.566.205 1.141.38 1.725.524 1.81.449 2.714 1.07 2.711 1.864 0 1.081-.809 1.623-2.426 1.626-1.618.003-2.672-.694-3.165-2.093l-2.655 1.564a5.249 5.249 0 0 0 2.197 2.503 6.953 6.953 0 0 0 3.623.906 6.451 6.451 0 0 0 3.968-1.197 3.82 3.82 0 0 0 1.205-1.436 3.906 3.906 0 0 0 .389-1.849 3.846 3.846 0 0 0-.411-1.935ZM107.319 13.39c1.053 0 1.907-.87 1.907-1.945 0-1.074-.854-1.945-1.907-1.945s-1.907.87-1.907 1.945c0 1.074.854 1.945 1.907 1.945Zm26.961 0c1.054 0 1.907-.87 1.907-1.945 0-1.074-.853-1.945-1.907-1.945-1.053 0-1.907.87-1.907 1.945 0 1.074.854 1.945 1.907 1.945Z" fill="#281464"/></g><defs><clipPath id="a"><path fill="#fff" transform="translate(7 9.5)" d="M0 0h159v21H0z"/></clipPath></defs></svg>
